X:18
T:Polonäs ur Nils-Johan Nybergs notbok
R:Slängpolska
B:http://www.smus.se/earkiv/fmk/browselarge.php?lang=sw&katalogid=M+46&bildnr=00013
B:Nils-Johan Nybergs notbok
O:Skåne, Herberga
Z:Nils L
M:3/4
L:1/16
K:D
A2d2 fafd egec | A2d2 fafd egec | d2ef g2f2 e2d2 | cdcB ABAG FGFE |
A2d2 fafd egec | A2d2 fafd egec | d2ef g2f2 e2d2 | egec d4 D4 :|
D2D2 F2DF A2FA | G2E2 E2G2 G2F2 | D2D2 F2DF A2FA | B2A2 G4 F4 |
A2d2 fafd egec | A2d2 fafd egec | d2ef g2f2 e2d2 | fece e4 d4 :|

